X:1
T:Quebec Breakdown
M:C
L:1/8
Q:80
C:Michael Grey
S:Reel
K:HP
e|:\
{gAGAG}A2{g}ceae{g}e{A}e{g}ef{g}f{e}f | 
{g}ec{G}ceae{g}fe{g}cB{g}B{G}B{gAGAG}A2{g}ceae{g}fa{g}af{g}f{e}f |
{g}ef{g}fA{g}ef{g}AB{g}GA{gAGAG}A2 :|
|:\
a{g}aA{d}cae{g}fa{g}af{g}f{e}f |
{g}ef{g}fA{d}cafA{g}cB{g}B{G}B |1 a{g}aA{d}cae{g}fa{g}af{g}f{e}f |
{g}ef{g}fA{g}ef{g}cB{g}GA{gAGAG}A2 :|

